X: 131
T: No_57_Song_of_the_Owner_of_the_Drum.krn
%%abc-version 2.0
%%abcx-abcm2ps-target-version 5.9.1 (29 Sep 2008)
%%abc-creator hum2abc beta
%%abcx-conversion-date 2020/08/10 18:54:57
%%gracespace 0 6 6
%%humdrum-veritas 3708002637
%%humdrum-veritas-data 525352884
%%linebreak <none>
%%barnumbers 0
L: 1/8
M: 3/4
%%staves {1 2}
V: 1 clef=bass
V: 2 clef=bass
K: E
[V:1] [K:clef=bass][M:3/4]B,>B, B,>B,B,2 | 
[V:2] [K:clef=bass][M:3/4]G,,G,, G,,G,, G,,G,, | 
[V:1] CD C>B,B,2 ||  
[V:2] z6 ||  
[V:1] [M:2/4]B,/F,/F, B,/F,/F, | 
[V:2] [M:2/4]z4 | 
[V:1] E,2(3E,C,B,, | 
[V:2] z4 | 
[V:1] B,,>B,,B,,2 | 
[V:2] z4 | 
[V:1] C,E, E,/C,3/ | 
[V:2] z4 | 
[V:1] B,,>B,, B,,3/B,,/ | 
[V:2] z4 | 
[V:1] B,,4- | 
[V:2] z4 | 
[V:1] B,,4 |]  
[V:2] z4 |]  


